material/.icons/material/vector-bezier.svg

<svg xmlns="http://www.w3.org/2000/svg" viewBox="0 0 24 24"><path d="M7.5 4A1.5 1.5 0 006 5.5 1.5 1.5 0 007.5 7c.63 0 1.2-.4 1.41-1H13c.67-.67 1.33-1 2-1H8.91c-.21-.6-.78-1-1.41-1M19 5C8 5 14 17 5 17v2c11 0 5-12 14-12V5m-2.5 12c-.63 0-1.2.4-1.41 1H11c-.67.67-1.33 1-2 1h6.09c.21.6.78 1 1.41 1a1.5 1.5 0 001.5-1.5 1.5 1.5 0 00-1.5-1.5z"/></svg>

<?xml version="1.0" encoding="UTF-8"?><!DOCTYPE svg PUBLIC "-//W3C//DTD SVG 1.1//EN" "http://www.w3.org/Graphics/SVG/1.1/DTD/svg11.dtd"><svg xmlns="http://www.w3.org/2000/svg" xmlns:xlink="http://www.w3.org/1999/xlink" version="1.1" id="mdi-vector-bezier" width="24" height="24" viewBox="0 0 24 24"><path d="M7.5,4A1.5,1.5 0 0,0 6,5.5A1.5,1.5 0 0,0 7.5,7C8.13,7 8.7,6.6 8.91,6H13C13.67,5.33 14.33,5 15,5H8.91C8.7,4.4 8.13,4 7.5,4M19,5C8,5 14,17 5,17V19C16,19 10,7 19,7V5M16.5,17C15.87,17 15.3,17.4 15.09,18H11C10.33,18.67 9.67,19 9,19H15.09C15.3,19.6 15.87,20 16.5,20A1.5,1.5 0 0,0 18,18.5A1.5,1.5 0 0,0 16.5,17Z" /></svg>
